Solution/ChromeWorker/html/scenario/icons/tag.svg

<svg xmlns="http://www.w3.org/2000/svg" width="13" height="13" fill="none" viewBox="0 0 13 13">
  <path fill="#9E9E9E" stroke="#9D996C" d="M12.329 8.10717l-.0004.00036-4.20785 4.21637c-.13231.1239-.26942.1761-.4323.1761-.1725 0-.30218-.0545-.41872-.171L1.13466 6.18531l.00003-.00004-.00502-.00489c-.156278-.15217-.307118-.37804-.440314-.69972C.555536 5.15748.5 4.88875.5 4.66799V1.09835C.5.938365.552507.806745.679626.679626.806745.552507.938365.5 1.09835.5h3.56964c.22076 0 .48949.055536.81267.189356.32221.133414.55336.28543.71298.445054l.00025.00025 6.13001 6.12143c.1239.13233.1761.26945.1761.43236 0 .1725-.0545.30218-.171.41872zM1.61575 1.61575l.35356.35356-.35356-.35356c-.30822.30823-.46823.69424-.46823 1.13012 0 .43589.16001.8219.46823 1.13013.30823.30822.69424.46822 1.13012.46822.43589 0 .8219-.16 1.13013-.46822.30822-.30823.46822-.69424.46822-1.13013 0-.43588-.16-.82189-.46822-1.13012-.30823-.30822-.69424-.46823-1.13013-.46823-.43588 0-.82189.16001-1.13012.46823z"/>
</svg>

<svg width="13" height="13" viewBox="0 0 13 13" fill="none" xmlns="http://www.w3.org/2000/svg">
<path d="M12.329 8.10717L12.3286 8.10753L8.12075 12.3239C7.98844 12.4478 7.85133 12.5 7.68845 12.5C7.51595 12.5 7.38627 12.4455 7.26973 12.329L1.13466 6.18531L1.13469 6.18527L1.12967 6.18038C0.973392 6.02821 0.822552 5.80234 0.689356 5.48066C0.555536 5.15748 0.5 4.88875 0.5 4.66799V1.09835C0.5 0.938365 0.552507 0.806745 0.679626 0.679626C0.806745 0.552507 0.938365 0.5 1.09835 0.5H4.66799C4.88875 0.5 5.15748 0.555536 5.48066 0.689356C5.80287 0.82277 6.03402 0.974786 6.19364 1.13441L6.19389 1.13466L12.3239 7.25609C12.4478 7.38842 12.5 7.52554 12.5 7.68845C12.5 7.86095 12.4455 7.99063 12.329 8.10717ZM1.61575 1.61575L1.96931 1.96931L1.61575 1.61575C1.30753 1.92398 1.14752 2.30999 1.14752 2.74587C1.14752 3.18176 1.30753 3.56777 1.61575 3.876C1.92398 4.18422 2.30999 4.34422 2.74587 4.34422C3.18176 4.34422 3.56777 4.18422 3.876 3.876C4.18422 3.56777 4.34422 3.18176 4.34422 2.74587C4.34422 2.30999 4.18422 1.92398 3.876 1.61575C3.56777 1.30753 3.18176 1.14752 2.74587 1.14752C2.30999 1.14752 1.92398 1.30753 1.61575 1.61575Z" fill="#9E9E9E" stroke="#9D996C"/>
</svg>
